figures-source/6.18.svg

<svg xmlns:rdf="http://www.w3.org/1999/02/22-rdf-syntax-ns#" xmlns="http://www.w3.org/2000/svg" height="267.5" width="564.37" version="1.1" xmlns:cc="http://creativecommons.org/ns#" xmlns:dc="http://purl.org/dc/elements/1.1/">
 <metadata>
  <rdf:RDF>
   <cc:Work rdf:about="">
    <dc:format>image/svg+xml</dc:format>
    <dc:type rdf:resource="http://purl.org/dc/dcmitype/StillImage"/>
    <dc:title/>
   </cc:Work>
  </rdf:RDF>
 </metadata>
 <defs>
  <marker id="Arrow1Lend" refY="0" refX="0" orient="auto">
   <path style="marker-start:none;" d="m-10,0,0-2,10,2-10,2z" fill-rule="evenodd" stroke="#000" stroke-width="1pt"/>
  </marker>
 </defs>
 <g transform="translate(-19.375,-101)">
  <rect rx="6.1162" ry="18" height="36" width="59.09" stroke="#616161" y="165.74" x="240.55" stroke-width="3px" fill="#d3f5d6"/>
  <text font-family="Courier New" font-size="15px" stroke="#000000" y="166.74001" x="240.548" stroke-width="0.1pt" fill="#000000">
   <tspan font-size="13.75px" fill="#000000" style="text-anchor:middle;text-align:center;" stroke="#000000" y="189.74001" x="270.09311" font-family="&apos;Courier" text-align="center">33009</tspan>
  </text>
  <rect rx="6.1162" ry="18" height="36" width="59.09" stroke="#616161" y="165.74" x="138" stroke-width="3px" fill="#d3f5d6"/>
  <text font-family="Courier New" font-size="15px" stroke="#000000" y="166.74001" x="138" stroke-width="0.1pt" fill="#000000">
   <tspan font-size="13.75px" fill="#000000" style="text-anchor:middle;text-align:center;" stroke="#000000" y="189.74001" x="167.5451" font-family="&apos;Courier" text-align="center">1edee</tspan>
  </text>
  <path style="marker-start:none;marker-end:url(#Arrow1Lend);" fill="none" d="m239.05,183.74-40.458,0" stroke="#000"/>
  <path style="marker-start:none;marker-end:url(#Arrow1Lend);" fill="none" d="M51.866,183.25,20,182.74" stroke="#000"/>
  <rect height="36" width="70.022" stroke="#616161" y="102" x="132.53" stroke-width="2px" fill="#EEE"/>
  <text font-family="Luxi Sans" font-size="12.5px" stroke="#cccccc" y="103" x="132.534" stroke-width="0.1pt" fill="#cccccc">
   <tspan font-size="11.25px" fill="#777777" style="text-anchor:middle;text-align:center;" stroke="#777777" y="125" x="167.5451" font-family="&apos;LucidaGrande" text-align="center">master</tspan>
  </text>
  <path style="marker-start:none;marker-end:url(#Arrow1Lend);" fill="none" d="m167.54,139,0,25.24" stroke="#000"/>
  <rect rx="6.1162" ry="18" height="36" width="59.09" stroke="#616161" y="165.74" x="53.363" stroke-width="3px" fill="#d3f5d6"/>
  <text font-family="Courier New" font-size="15px" stroke="#000000" y="166.74001" x="53.362999" stroke-width="0.1pt" fill="#000000">
   <tspan font-size="13.75px" fill="#000000" style="text-anchor:middle;text-align:center;" stroke="#000000" y="189.74001" x="82.908096" font-family="&apos;Courier" text-align="center">4b078</tspan>
  </text>
  <path style="marker-start:none;marker-end:url(#Arrow1Lend);" fill="none" d="m136.5,183.74-22.547,0" stroke="#000"/>
  <rect rx="6.1162" ry="18" height="36" width="59.09" stroke="#616161" y="331" x="240.55" stroke-width="3px" fill="#d3f5d6"/>
  <text font-family="Courier New" font-size="15px" stroke="#000000" y="332" x="240.548" stroke-width="0.1pt" fill="#000000">
   <tspan font-size="13.75px" fill="#000000" style="text-anchor:middle;text-align:center;" stroke="#000000" y="355" x="270.09311" font-family="&apos;Courier" text-align="center">e5b0f</tspan>
  </text>
  <path style="marker-start:none;marker-end:url(#Arrow1Lend);" fill="none" d="M253.44,329.87,207,276.5,175.79,203.12" stroke="#000"/>
  <rect height="36" width="70.022" stroke="#616161" y="331" x="332.27" stroke-width="2px" fill="#EEE"/>
  <text font-family="Luxi Sans" font-size="12.5px" stroke="#cccccc" y="332" x="332.27399" stroke-width="0.1pt" fill="#cccccc">
   <tspan font-size="11.25px" fill="#777777" style="text-anchor:middle;text-align:center;" stroke="#777777" y="354" x="367.2851" font-family="&apos;LucidaGrande" text-align="center">featureB</tspan>
  </text>
  <rect height="36" width="82.466" stroke="#616161" y="102" x="228.86" stroke-width="2px" fill="#EEE"/>
  <text font-family="Luxi Sans" font-size="12.5px" stroke="#cccccc" y="103" x="228.86" stroke-width="0.1pt" fill="#cccccc">
   <tspan font-size="11.25px" fill="#777777" style="text-anchor:middle;text-align:center;" stroke="#777777" y="125" x="270.09305" font-family="&apos;LucidaGrande" text-align="center">origin/master</tspan>
  </text>
  <path style="marker-start:none;marker-end:url(#Arrow1Lend);" fill="none" d="m270.09,139,0,25.24" stroke="#000"/>
  <path style="marker-start:none;marker-end:url(#Arrow1Lend);" fill="none" d="m331.27,349-30.136,0" stroke="#000"/>
  <rect rx="6.1162" ry="18" height="36" width="59.09" stroke="#616161" y="276.26" x="332.27" stroke-width="3px" fill="#d3f5d6"/>
  <text font-family="Courier New" font-size="15px" stroke="#000000" y="277.26001" x="332.27399" stroke-width="0.1pt" fill="#000000">
   <tspan font-size="13.75px" fill="#000000" style="text-anchor:middle;text-align:center;" stroke="#000000" y="300.26001" x="361.81909" font-family="&apos;Courier" text-align="center">dee6b</tspan>
  </text>
  <rect height="36" width="70.022" stroke="#616161" y="278.89" x="512.73" stroke-width="2px" fill="#EEE"/>
  <text font-family="Luxi Sans" font-size="12.5px" stroke="#cccccc" y="279.89001" x="512.72601" stroke-width="0.1pt" fill="#cccccc">
   <tspan font-size="11.25px" fill="#777777" style="text-anchor:middle;text-align:center;" stroke="#777777" y="301.89001" x="547.73712" font-family="&apos;LucidaGrande" text-align="center">featureA</tspan>
  </text>
  <path style="marker-start:none;marker-end:url(#Arrow1Lend);" fill="none" d="m511.73,295.9-28.768-0.79" stroke="#000"/>
  <path style="marker-start:none;marker-end:url(#Arrow1Lend);" fill="none" d="M345.92,275.11,285.99,202.89" stroke="#000"/>
  <rect rx="6.1162" ry="18" height="36" width="59.09" stroke="#616161" y="276.26" x="422.38" stroke-width="3px" fill="#d3f5d6"/>
  <text font-family="Courier New" font-size="15px" stroke="#000000" y="277.26001" x="422.37701" stroke-width="0.1pt" fill="#000000">
   <tspan font-size="13.75px" fill="#000000" style="text-anchor:middle;text-align:center;" stroke="#000000" y="300.26001" x="451.92209" font-family="&apos;Courier" text-align="center">5399e</tspan>
  </text>
  <path style="marker-start:none;marker-end:url(#Arrow1Lend);" fill="none" d="m420.88,294.26-28.013,0" stroke="#000"/>
  <rect rx="6.1162" ry="18" height="36" width="59.09" stroke="#616161" y="212" x="332.27" stroke-width="3px" fill="#d3f5d6"/>
  <text font-family="Courier New" font-size="15px" stroke="#000000" y="213" x="332.27399" stroke-width="0.1pt" fill="#000000">
   <tspan font-size="13.75px" fill="#000000" style="text-anchor:middle;text-align:center;" stroke="#000000" y="236" x="361.81909" font-family="&apos;Courier" text-align="center">17f4d</tspan>
  </text>
  <path style="marker-start:none;marker-end:url(#Arrow1Lend);" fill="none" d="M333.89,215.91,298.02,197.83" stroke="#000"/>
  <rect height="36" width="70.022" stroke="#616161" y="212" x="422.38" stroke-width="2px" fill="#EEE"/>
  <text font-family="Luxi Sans" font-size="12.5px" stroke="#cccccc" y="213" x="422.37701" stroke-width="0.1pt" fill="#cccccc">
   <tspan font-size="11.25px" fill="#777777" style="text-anchor:middle;text-align:center;" stroke="#777777" y="235" x="457.38809" font-family="&apos;LucidaGrande" text-align="center">featureBv2</tspan>
  </text>
  <path style="marker-start:none;marker-end:url(#Arrow1Lend);" fill="none" d="m421.38,230-28.513,0" stroke="#000"/>
 </g>
</svg>

<?xml version="1.0" ?>
<svg xmlns="http://www.w3.org/2000/svg" xmlns:xlink="http://www.w3.org/1999/xlink">
	<defs>
		<marker id="Arrow1Lend" orient="auto" refX="0.0" refY="0.0" style="overflow:visible;">
			
              
			<path d="M -10,0.0 L -10.0,-2.0 L 0.0,0.0 L -10.0,2.0 z " id="path3666" style="fill-rule:evenodd;stroke:#000000;stroke-width:1.0pt;marker-start:none;"/>
			
            
		</marker>
	</defs>
	<g style="stroke:#000000;fill:#fff">
		<rect height="36.0" id="" rx="6.1162089889" ry="18.0" style="stroke:#616161;stroke-width:3.000000px;fill:#d3f5d6" width="59.0902" x="240.548" y="165.74"/>
		<text id="" style="fill:#000000;stroke:#000000;stroke-width:0.1pt;font-family: Courier New;font-size:12pt" x="240.548" y="166.74">
			<tspan fill="#000000" font-family="Courier;" font-size="11.0pt" id="" stroke="#000000" text-align="center" text-anchor="middle" x="270.0931" y="189.74">
				33009
			</tspan>
		</text>
		<rect height="36.0" id="" rx="6.1162089889" ry="18.0" style="stroke:#616161;stroke-width:3.000000px;fill:#d3f5d6" width="59.0902" x="138.0" y="165.74"/>
		<text id="" style="fill:#000000;stroke:#000000;stroke-width:0.1pt;font-family: Courier New;font-size:12pt" x="138.0" y="166.74">
			<tspan fill="#000000" font-family="Courier;" font-size="11.0pt" id="" stroke="#000000" text-align="center" text-anchor="middle" x="167.5451" y="189.74">
				1edee
			</tspan>
		</text>
		<path d="M 239.048,183.74 L 198.59,183.74" id="" style="marker-start:none;stroke:#000000;marker-end:url(#Arrow1Lend);fill:none"/>
		<path d="M 51.8662,183.247 L 20.0,182.74" id="" style="marker-start:none;stroke:#000000;marker-end:url(#Arrow1Lend);fill:none"/>
		<rect height="36.0" id="" style="stroke:#616161;stroke-width:2.000000px;fill:#eeeeee" width="70.0222" x="132.534" y="102.0"/>
		<text id="" style="fill:#cccccc;stroke:#cccccc;stroke-width:0.1pt;font-family: Luxi Sans;font-size:10pt" x="132.534" y="103.0">
			<tspan fill="#777777" font-family="LucidaGrande;" font-size="9.0pt" id="" stroke="#777777" text-align="center" text-anchor="middle" x="167.5451" y="125.0">
				master
			</tspan>
		</text>
		<path d="M 167.545,139.0 L 167.545,164.24" id="" style="marker-start:none;stroke:#000000;marker-end:url(#Arrow1Lend);fill:none"/>
		<rect height="36.0" id="" rx="6.1162089889" ry="18.0" style="stroke:#616161;stroke-width:3.000000px;fill:#d3f5d6" width="59.0902" x="53.363" y="165.74"/>
		<text id="" style="fill:#000000;stroke:#000000;stroke-width:0.1pt;font-family: Courier New;font-size:12pt" x="53.363" y="166.74">
			<tspan fill="#000000" font-family="Courier;" font-size="11.0pt" id="" stroke="#000000" text-align="center" text-anchor="middle" x="82.9081" y="189.74">
				4b078
			</tspan>
		</text>
		<path d="M 136.5,183.74 L 113.953,183.74" id="" style="marker-start:none;stroke:#000000;marker-end:url(#Arrow1Lend);fill:none"/>
		<rect height="36.0" id="" rx="6.1162089889" ry="18.0" style="stroke:#616161;stroke-width:3.000000px;fill:#d3f5d6" width="59.0902" x="240.548" y="331.0"/>
		<text id="" style="fill:#000000;stroke:#000000;stroke-width:0.1pt;font-family: Courier New;font-size:12pt" x="240.548" y="332.0">
			<tspan fill="#000000" font-family="Courier;" font-size="11.0pt" id="" stroke="#000000" text-align="center" text-anchor="middle" x="270.0931" y="355.0">
				e5b0f
			</tspan>
		</text>
		<path d="M 253.444,329.868 L 207.0,276.5  L 175.788,203.12" id="" style="marker-start:none;stroke:#000000;marker-end:url(#Arrow1Lend);fill:none"/>
		<rect height="36.0" id="" style="stroke:#616161;stroke-width:2.000000px;fill:#eeeeee" width="70.0222" x="332.274" y="331.0"/>
		<text id="" style="fill:#cccccc;stroke:#cccccc;stroke-width:0.1pt;font-family: Luxi Sans;font-size:10pt" x="332.274" y="332.0">
			<tspan fill="#777777" font-family="LucidaGrande;" font-size="9.0pt" id="" stroke="#777777" text-align="center" text-anchor="middle" x="367.2851" y="354.0">
				featureB
			</tspan>
		</text>
		<rect height="36.0" id="" style="stroke:#616161;stroke-width:2.000000px;fill:#eeeeee" width="82.4661" x="228.86" y="102.0"/>
		<text id="" style="fill:#cccccc;stroke:#cccccc;stroke-width:0.1pt;font-family: Luxi Sans;font-size:10pt" x="228.86" y="103.0">
			<tspan fill="#777777" font-family="LucidaGrande;" font-size="9.0pt" id="" stroke="#777777" text-align="center" text-anchor="middle" x="270.09305" y="125.0">
				origin/master
			</tspan>
		</text>
		<path d="M 270.093,139.0 L 270.093,164.24" id="" style="marker-start:none;stroke:#000000;marker-end:url(#Arrow1Lend);fill:none"/>
		<path d="M 331.274,349.0 L 301.138,349.0" id="" style="marker-start:none;stroke:#000000;marker-end:url(#Arrow1Lend);fill:none"/>
		<rect height="36.0" id="" rx="6.1162089889" ry="18.0" style="stroke:#616161;stroke-width:3.000000px;fill:#d3f5d6" width="59.0902" x="332.274" y="276.26"/>
		<text id="" style="fill:#000000;stroke:#000000;stroke-width:0.1pt;font-family: Courier New;font-size:12pt" x="332.274" y="277.26">
			<tspan fill="#000000" font-family="Courier;" font-size="11.0pt" id="" stroke="#000000" text-align="center" text-anchor="middle" x="361.8191" y="300.26">
				dee6b
			</tspan>
		</text>
		<rect height="36.0" id="" style="stroke:#616161;stroke-width:2.000000px;fill:#eeeeee" width="70.0222" x="512.726" y="278.89"/>
		<text id="" style="fill:#cccccc;stroke:#cccccc;stroke-width:0.1pt;font-family: Luxi Sans;font-size:10pt" x="512.726" y="279.89">
			<tspan fill="#777777" font-family="LucidaGrande;" font-size="9.0pt" id="" stroke="#777777" text-align="center" text-anchor="middle" x="547.7371" y="301.89">
				featureA
			</tspan>
		</text>
		<path d="M 511.726,295.902 L 482.958,295.112" id="" style="marker-start:none;stroke:#000000;marker-end:url(#Arrow1Lend);fill:none"/>
		<path d="M 345.922,275.106 L 285.99,202.894" id="" style="marker-start:none;stroke:#000000;marker-end:url(#Arrow1Lend);fill:none"/>
		<rect height="36.0" id="" rx="6.1162089889" ry="18.0" style="stroke:#616161;stroke-width:3.000000px;fill:#d3f5d6" width="59.0902" x="422.377" y="276.26"/>
		<text id="" style="fill:#000000;stroke:#000000;stroke-width:0.1pt;font-family: Courier New;font-size:12pt" x="422.377" y="277.26">
			<tspan fill="#000000" font-family="Courier;" font-size="11.0pt" id="" stroke="#000000" text-align="center" text-anchor="middle" x="451.9221" y="300.26">
				5399e
			</tspan>
		</text>
		<path d="M 420.877,294.26 L 392.864,294.26" id="" style="marker-start:none;stroke:#000000;marker-end:url(#Arrow1Lend);fill:none"/>
		<rect height="36.0" id="" rx="6.1162089889" ry="18.0" style="stroke:#616161;stroke-width:3.000000px;fill:#d3f5d6" width="59.0902" x="332.274" y="212.0"/>
		<text id="" style="fill:#000000;stroke:#000000;stroke-width:0.1pt;font-family: Courier New;font-size:12pt" x="332.274" y="213.0">
			<tspan fill="#000000" font-family="Courier;" font-size="11.0pt" id="" stroke="#000000" text-align="center" text-anchor="middle" x="361.8191" y="236.0">
				17f4d
			</tspan>
		</text>
		<path d="M 333.888,215.914 L 298.024,197.826" id="" style="marker-start:none;stroke:#000000;marker-end:url(#Arrow1Lend);fill:none"/>
		<rect height="36.0" id="" style="stroke:#616161;stroke-width:2.000000px;fill:#eeeeee" width="70.0222" x="422.377" y="212.0"/>
		<text id="" style="fill:#cccccc;stroke:#cccccc;stroke-width:0.1pt;font-family: Luxi Sans;font-size:10pt" x="422.377" y="213.0">
			<tspan fill="#777777" font-family="LucidaGrande;" font-size="9.0pt" id="" stroke="#777777" text-align="center" text-anchor="middle" x="457.3881" y="235.0">
				featureBv2
			</tspan>
		</text>
		<path d="M 421.377,230.0 L 392.864,230.0" id="" style="marker-start:none;stroke:#000000;marker-end:url(#Arrow1Lend);fill:none"/>
	</g>
</svg>
